symbols/be/PVA-{80}.svg

<?xml version="1.0" encoding="UTF-8" standalone="no"?>
<!-- Initially created with Inkscape, optimized by hand -->

<svg
   version="1.1"
   width="20"
   height="17.320995"
   id="svg1"
   xmlns="http://www.w3.org/2000/svg"
   xmlns:svg="http://www.w3.org/2000/svg">
  <defs
     id="defs1" />
  <path
     id="Fond"
     d="M 20,-1.2580566e-6 H 3.1098633e-6 L 10.000003,17.320999 Z"
     fill="#edd827"
     style="stroke-width:0.1" />
  <path
     d="m 8.6186671,5.3228317 c 0.064,0.117334 0.149334,0.202667 0.234667,0.288001 -0.170667,0.138667 -0.266667,0.234667 -0.384001,0.426668 -0.149334,0.245334 -0.245334,0.416001 -0.245334,0.704002 v 1.429338 c 0,0.885336 0.885336,1.418671 1.7813389,1.418671 0.885336,0 1.770672,-0.533335 1.770672,-1.418671 v -1.429338 c 0,-0.277334 -0.02133,-0.458668 -0.170667,-0.704002 -0.128,-0.202667 -0.256001,-0.320001 -0.458668,-0.426668 0.106667,-0.096 0.16,-0.170667 0.245334,-0.288001 0.149334,-0.245334 0.213334,-0.416001 0.213334,-0.714669 v -0.704002 c 0,-0.832003 -0.768002,-1.429338 -1.600005,-1.429338 -0.8320029,0 -1.6000049,0.597335 -1.6000049,1.429338 v 0.704002 c 0,0.298668 0.064,0.469335 0.213334,0.714669 z m 2.2720069,-0.714669 c 0,0.448001 -0.448001,0.714669 -0.885336,0.714669 -0.4480019,0 -0.8960029,-0.266668 -0.8960029,-0.714669 v -0.704002 c 0,-0.448002 0.448001,-0.714669 0.8960029,-0.714669 0.437335,0 0.885336,0.266667 0.885336,0.714669 z m 0.181334,3.562678 c 0,0.490668 -0.565335,0.704002 -1.056003,0.704002 -0.5013349,0.01067 -1.0773369,-0.202667 -1.0773369,-0.704002 v -1.429338 c 0,-0.501335 0.554668,-0.725335 1.0666699,-0.725335 0.501335,0 1.06667,0.224 1.06667,0.725335 z"
     id="text1"
     style="font-size:10.6667px;font-family:Isonorm;-inkscape-font-specification:'Isonorm, Normal';fill-rule:evenodd;stroke-width:0.08"
     aria-label="8" />
</svg>

<?xml version="1.0" encoding="UTF-8"?>
<svg xmlns="http://www.w3.org/2000/svg" xmlns:xlink="http://www.w3.org/1999/xlink" width="20" height="17.320995" viewBox="0 0 20 17.320995">
<path fill-rule="nonzero" fill="rgb(92.941176%, 84.705882%, 15.294118%)" fill-opacity="1" d="M 20 0 L 0 0 L 10 17.320312 Z M 20 0 "/>
<path fill-rule="evenodd" fill="rgb(0%, 0%, 0%)" fill-opacity="1" d="M 8.617188 5.324219 C 8.683594 5.441406 8.769531 5.527344 8.851562 5.609375 C 8.683594 5.75 8.585938 5.84375 8.46875 6.039062 C 8.320312 6.28125 8.222656 6.453125 8.222656 6.742188 L 8.222656 8.171875 C 8.222656 9.054688 9.109375 9.589844 10.003906 9.589844 C 10.890625 9.589844 11.777344 9.054688 11.777344 8.171875 L 11.777344 6.742188 C 11.777344 6.464844 11.753906 6.28125 11.605469 6.039062 C 11.476562 5.835938 11.347656 5.71875 11.148438 5.609375 C 11.253906 5.515625 11.308594 5.441406 11.390625 5.324219 C 11.542969 5.078125 11.605469 4.90625 11.605469 4.609375 L 11.605469 3.902344 C 11.605469 3.070312 10.835938 2.476562 10.003906 2.476562 C 9.171875 2.476562 8.40625 3.070312 8.40625 3.902344 L 8.40625 4.609375 C 8.40625 4.90625 8.46875 5.078125 8.617188 5.324219 Z M 10.890625 4.609375 C 10.890625 5.054688 10.441406 5.324219 10.003906 5.324219 C 9.558594 5.324219 9.109375 5.054688 9.109375 4.609375 L 9.109375 3.902344 C 9.109375 3.457031 9.558594 3.191406 10.003906 3.191406 C 10.441406 3.191406 10.890625 3.457031 10.890625 3.902344 Z M 11.070312 8.171875 C 11.070312 8.660156 10.507812 8.875 10.015625 8.875 C 9.515625 8.886719 8.9375 8.671875 8.9375 8.171875 L 8.9375 6.742188 C 8.9375 6.238281 9.492188 6.015625 10.003906 6.015625 C 10.507812 6.015625 11.070312 6.238281 11.070312 6.742188 Z M 11.070312 8.171875 "/>
</svg>
